X: 31963
T: Peat-Fire Flame, The
R: polka
M: 2/4
K: Eminor
E>F GF|ED BD|BA AG/A/|BA G/A/G/F/|
EE/F/ GF|ED B>A|GE FD|E2 E:|
G>A Bg/f/|ed- dB|BA AG/A/|B/c/B/A/ GF|
EG/A/ Bg/f/|e/f/e/d/ BA|GE FG/F/|E2- E:|

